X:1
T:Alas! what hope of speeding - Kirbye
T:James Gibb editions
T:#
%%score { 1 | 2 } 3 4 { ( 5 7 ) | ( 6 8 ) }
L:1/8
Q:1/4=108
M:4/4
K:C
V:1 treble nm="Soprano I" snm="S"
V:2 treble 
V:3 treble-8 nm="Tenor" snm="T"
V:4 bass nm="Bass" snm="B"
V:5 treble nm="Practice"
V:7 treble 
V:6 bass 
V:8 bass 
V:1
"^Alas! what hope of speeding""^George Kirbye\n(1570-1634)" z4 (c4- | c4 B2 A2) | B4 z2 B2 | %3
w: A\-||las! What|
 B2 c2 d4 | d2 e2 c3 c | c2 d2 B4- |[M:4/4] B4 B4 | z8 | z8 | z4 z2 ^G2 | ^G2 A2 B4 | B2 c2 A3 A | %12
w: hope of speed-|ing, Where hope be-|guil'd lies bleed\-|* ing?|||What|hope of speed-|ing, Where hope he-|
 A2 A2 ^G4- | G4 ^G4 | z8 | z8 | A2 B2 c4- | c2 B4 A2 | ^G4 A4 | z2 c2 A2 B2 | c3 G (ABcd | e8) | %22
w: guil'd lies bleed\-|* ing?|||She bade come,|* when she|spy'd me,|And, when I|came, she fly'd * * *||
 e4 z2 c2 | A2 B2 c4 | z4 z2 E2 | (E^F^GA B4) | B4 z2 E2 | A3 ^G A2 c2 | B4 B2 z2 | z2 B2 c3 B | %30
w: me, and,|when I came,|she|fly'd * * * *|me. Then,|when I was be-|guil- ed,|then, when I|
 c2 A2 B4 | B4 z2 B2 | B2 c2 z2 d2- | d2 e2 (edcB | A3 B/c/ dcBA | ^G2 A4 G2) | A4 z2 E2 | %37
w: was be- guil-|ed, She|at my sigh\-|* ing smil\- * * *|||ed, she|
 E2 F2 z2 G2- | G2 A2 z2 ^G2 | ^G2 A2 z2 B2- | B2 c2 (cBcd | edcB A3 G/F/ | E8) | E8 | z4 z2 e2 | %45
w: at my sigh\-|* ing, she|at my sigh\-|* ing smil\- * * *|||ed.|But|
 e3 e d2 c2 | B4 A4 | z2 A2 A2 G2 | F2 G2 G4 | G8 | z4 z2 ed | c2 cB A4 | A4 z2 dc | B2 BA ^G2 G2 | %54
w: if you take such|plea- sure|Of hope and|joy, my trea-|sure,|By de-|ceit to be- reave|me, by de-|ceit to be- reave me,|
 A2 =GF E2 F2 | E8 | E8 | z4 z2 e2 | e3 e d2 c2 | B4 A4 | z2 A2 A2 G2 | F2 G2 G4 | G8 | z4 z2 ed | %64
w: Love me, and so de-|ceive|me.|But|if you take such|plea- sure|Of hope and|joy, my trea-|sure,|By de-|
 c2 cB A4 | A4 z2 dc | %66
w: ceit to be- reave|me, by de-|
[Q:1/4=107][Q:1/4=107] B2[Q:1/4=106][Q:1/4=106] B[Q:1/4=106][Q:1/4=106]A[Q:1/4=105][Q:1/4=105] ^G2[Q:1/4=104][Q:1/4=104] G2 | %67
w: ceit to be- reave me,|
[Q:1/4=103][Q:1/4=103] A2[Q:1/4=102][Q:1/4=102] =G[Q:1/4=102][Q:1/4=102]F[Q:1/4=101][Q:1/4=101] E2[Q:1/4=100] F2 | %68
w: Love me, and so de-|
[Q:1/4=97] E8 |[Q:1/4=96][Q:1/4=96] E8 |] %70
w: ceive|me.|
V:2
 (A8- | A4 ^G2 ^F2) | ^G4 z2 G2 | ^G2 A2 B4 | B2 c2 A3 A | A2 A2 ^G4- |[M:4/4] G4 ^G4 | z8 | E8 | %9
w: A\-||las! What|hope of speed-|ing, Where hope be-|guil'd lies bleed\-|* ing?||A-|
 E4 z2 B2 | B2 c2 d4 | d2 e2 c3 c | c2 d2 B4- | B4 B4 | z8 | z8 | c2 d2 e4- | e2 d4 c2 | B4 ^c4 | %19
w: las! What|hope of speed-|ing, Where hope be-|guil'd lies bleed\-|* ing?|||She bade come,|* when she|spy'd me.|
 z2 e2 c2 d2 | e3 e (edcB | c3 B/A/ ^G4) | ^G4 z2 A2 | A2 G2 E2 A2 | (ABcd e4) | e8- | e4 z2 B2 | %27
w: And, when I|came, she fly'd * * *||me, and,|when I came, she|fly'd * * * *|me.|* Then,|
 c3 B c2 A2 | ^G4 G2 A2 | ^G4 A4 | z2 E2 ^F4 | ^G4 z2 G2 | ^G2 A2 z2 B2- | B2 c2 (cBcd | %34
w: when I was be-|guil- ed, be-|guil- ed,|be- guil-|ed, She|at my sigh\-|* ing smil\- * * *|
 edcB AB/c/ dc | B2 A2 B4) | ^c4 z2 A2 | A2 A2 z2 =c2- | c2 c2 z2 B2 | B2 c2 z2 d2- | d2 e2 (edcB | %41
w: ||ed, she|at my sigh\-|* ing, she|at my sigh\-|* ing smil\- * * *|
 A3 B/c/ dcBA | ^G2 A4 G2) | A4 z2 e2 | e3 e d2 c2 | B4 A4 | z8 | z2 c2 c2 c2 | A2 c2 B4 | c8 | %50
w: ||ed. But|if you take such|plea- sure||Of hope and|joy, my trea-|sure,|
 z2 ed c2 cB | A6 D2 | z2 dc B2 BA | ^G2 GE E2 E2 | z4 c2 BA | ^G2 A2 G4 | A4 z2 e2 | e3 e d2 c2 | %58
w: By de- ceit to be-|reave me,|by de- ceit to be-|reave me, be- reave me,|Love me, and|so de- ceive|me. But|if you take such|
 B4 A4 | z8 | z2 c2 c2 c2 | A2 c2 B4 | c8 | z2 ed c2 cB | A6 D2 | z2 dc B2 BA | ^G2 GE E2 E2 | %67
w: plea- sure||Of hope and|joy, my trea-|sure,|By de- ceit to be-|reave me,|by de- ceit to be-|reave me, be- reave me,|
 z4 c2 BA | ^G2 A2 G4 | A8 |] %70
w: Love me, and|so de- ceive|me.|
V:3
 z8 | z8 | z4 z2 e2 | e2 a2 g4 | g2 c2 f3 f | f2 d2 e4- |[M:4/4][K:treble-8] e4 e4 | z4 (c4- | %8
w: ||What|hope of speed-|ing, Where hope be-|guil'd lies bleed\-|* ing?|A\-|
 c4 B2 A2) | B4 z2 e2 | e2 e2 g4 | g2 g2 f3 f | f2 f2 e4- | e4 e4 | c2 d2 e4 | d2 c2 B4 | %16
w: |las! What|hope of speed-|ing, Where hope be-|guil'd lies bleed\-|* ing?|She bade come,|when she spy'd|
 A4 e2 f2 | g4 g2 e2 | e4 e4 | z2 e2 f2 d2 | c4 z2 A2 | (ABcd e4) | e4 z2 e2 | f2 d2 c4 | %24
w: me, she bade|come when she|spy'd me,|And when I|came she|fly'd * * * *|me, And|when I came|
 z2 c2 (c3 B/A/ | ^G^FEF G4- | G4) =G4 | z4 z2 A2 | e3 d e2 c2 | B4 A4 | z2 e2 ^d4 | e4 z2 e2 | %32
w: she fly'd * *||* me.|Then,|when I was be-|guil- ed,|be- guil-|ed, She|
 e2 a2 z2 g2- | g2 c2 z2 A2 | A2 A2 f2 d2 | e8 | A4 z2 ^c2 | ^c2 d2 z2 e2- | e2 f2 z2 e2 | %39
w: at my sigh\-|* ing, she|at my sigh- ing|smil-|ed She|at my sigh\-|* ing, she|
 e2 e2 z2 =g2- | g2 g2 z2 (ed | cB A3 B/c/ dc | B2 c2 B4) | ^c4 z2 A2 | e3 e ^f2 a2 | ^g4 a4 | z8 | %47
w: at my sigh\-|* ing smil\- *|||ed. But|if you take such|plea- sure||
 z2 f2 f2 c2 | d2 e2 d4 | e4 z2 ed | c2 cB A4 | A4 z2 ag | f2 fe d2 d2 | z2 ec B2 B2 | z4 e2 dc | %55
w: Of hope and|joy, my trea-|sure, By de-|ceit to be- reave|me by de-|ceit to be- reave me,|to be- reave me,|Love me, and|
 B2 c2 B4 | ^c4 z2 A2 | e3 e ^f2 a2 | ^g4 a4 | z8 | z2 f2 f2 c2 | d2 e2 d4 | e4 z2 ed | c2 cB A4 | %64
w: so de- ceive|me. But|if you take such|plea- sure||Of hope and|joy, my trea-|sure, By de-|ceit to be- reave|
 A4 z2 ag | f2 fe d2 d2 | z2 ec B2 B2 | z4 e2 dc | B2 c2 B4 | ^c8 |] %70
w: me, by de-|ceit to be- reave me,|to be- reave me,|Love me, and|so de- ceive|me.|
V:4
 z8 | z8 | z8 | z8 | z8 | z8 |[M:4/4] z8 | (A,8- | A,4 ^G,2 ^F,2) | ^G,4 z2 E,2 | E,2 A,2 G,4 | %11
w: |||||||A\-||las! What|hope of speed-|
 G,2 C,2 F,3 F, | F,2 D,2 E,4- | E,4 E,4 | A,2 B,2 C4 | B,2 A,2 ^G,4 | A,8 | z4 G,2 A,2 | %18
w: ing, Where hope be-|guil'd lies bleed\-|* ing?|She bade come,|when she spy'd|me,|when she|
 E,4 A,,4- | A,,4 z4 | z8 | z8 | z4 z2 A,2 | F,2 G,2 A,4 | z2 A,,2 (A,,B,,C,D, | E,8) | E,8 | z8 | %28
w: spy'd me,||||And|when I came|she fly'd * * *||me.||
 z8 | z2 E,2 A,3 ^G, | A,2 C2 B,4 | E,8 | z8 | z8 | z8 | z8 | z4 z2 A,2 | A,2 D2 z2 =C2- | %38
w: |Then when I|was be- guil-|ed,|||||She|at my sigh\-|
 C2 F,2 z2 E,2 | E,2 A,2 z2 =G,2- | G,2 C,2 z2 A,,2 | A,,2 A,,2 F,2 D,2 | E,8 | A,,8 | z4 z2 A,,2 | %45
w: * ing, she|at my sigh\-|* ing she|at my sigh- ing|smil-|ed.|But|
 E,3 E, ^F,2 A,2 | ^G,4 A,4 | z2 F,2 F,2 E,2 | D,2 C,2 G,4 | C,8- | C,4 z4 | z2 A,G, F,2 F,E, | %52
w: if you take such|plea- sure|Of hope and|joy, my trea-|sure,||By de- ceit to be-|
 D,8 | E,8 | F,2 E,D, C,2 D,2 | E,8 | A,,8 | z4 z2 A,,2 | E,3 E, ^F,2 A,2 | ^G,4 A,4 | %60
w: reave|me,|Love me and so de-|ceive|me.|But|if you take such|plea- sure|
 z2 F,2 F,2 E,2 | D,2 C,2 G,4 | C,8- | C,4 z4 | z2 A,G, F,2 F,E, | D,8 | E,8 | F,2 E,D, C,2 D,2 | %68
w: Of hope and|joy, my trea-|sure,||By de- ceit to be-|reave|me,|Love me, and so de-|
 E,8 | A,,8 |] %70
w: ceive|me.|
V:5
 A4- [Ac]4 | [Ac]4 [^GB]2 [^FA]2 | [^GB]4 z2 [EGB]2 | [E^GB]2 [Ac]2 [=GBd]4 | %4
 [GBd]2 [Ece]2 [FAc]3 [FAc] | [FAc]2 [DAd]2 [E^GB]4- |[M:4/4] [EGB]4 [E^GB]4 | z8 | E8 | %9
 E4 z2 [E^GB]2 | [E^GB]2 [EAc]2 [=GBd]4 | [GBd]2 [Gce]2 [FAc]3 [FAc] | [FAc]2 [FAd]2 [E^GB]4- | %13
 [EGB]4 [E^GB]4 | z8 | z8 | [Ac]2 [Bd]2 [ce]4- | [ce]2 [Bd]4 [EAc]2 | [E^GB]4 [EA^c]4 | %19
 z2 [Ece]2 [FA=c]2 [DBd]2 | [ce]3 [Ge] [Ae][Bd]c[Bd] | e8 | [^Ge]4 z2 [EAc]2 | [FA]2 [DGB]2 c4 | %24
 x4 x4 | E^F^GA B4 | x4 z2 [EB]2 | [Ac]3 [^GB] [Ac]2 [Ac]2 | [^GB]4 [GB]2 A2 | z2 B2 c3 B | %30
 c2 [EA]2 [^D^FB]4 | [E^GB]4 z2 [EGB]2 | [E^GB]2 [Ac]2 z2 [=GBd]2- | [GBd]2 [ce]2 [ce][Bd]c[Bd] | %34
 A3 B/c/ dc [Bd][Ac] | [^GB]2 A4 G2 | [A^c]4 z2 [EA]2 | [EA]2 [FA]2 z2 [G=c]2- | %38
 [Gc]2 [FAc]2 z2 [E^GB]2 | [E^GB]2 [EAc]2 z2 [=GBd]2- | [GBd]2 [Gce]2 [ce][Bd][Ec][DBd] | %41
 edcB A3 G/F/ | E8 | E8 | x8 | e3 e d2 c2 | B4 A4 | z2 [FAc]2 [FAc]2 [CGc]2 | %48
 [DFA]2 [EGc]2 [DGB]4 | [Gc]8 | x4 x2 x2 | c2 cB A4 | A4 x2 [Bd][Ac] | %53
 [^GB]2 [EGB][CEA] [B,EG]2 [B,EG]2 | A2 =GF [Ec]2 F2 | E8 | E8 | x8 | x8 | x8 | x8 | x8 | x8 | %63
 x4 x2 x2 | c2 cB A4 | A4 [DB]2 [Bd][Ac] | [^GB]2 [EGB][CEA] [B,EG]2 [B,EG]2 | %67
 A2 =GF [Ec]2 [DB][CA] | [B,^G]2 [CA]2 [B,G]4 | [^CEA]8 |] %70
V:6
 z8 | z8 | z8 | z8 | z8 | z8 |[M:4/4] z8 | A,4- [A,C]4 | [A,C]4 [^G,B,]2 [^F,A,]2 | %9
 [^G,B,]4 z2 E,2 | E,2 A,2 G,4 | G,2 C,2 F,3 F, | F,2 D,2 E,4- | E,4 E,4 | [A,C]2 [B,D]2 [CE]4 | %15
 [B,D]2 [A,C]2 [^G,B,]4 | A,8 | z4 G,2 A,2 | E,4 A,,4- | A,,4 z4 | C4 z2 A,2 | A,B,CD E4 | %22
 E4 z2 A,2 | F,2 G,2 [A,C]4 | z2 C2 C3 B,/A,/ | ^G,^F,E,F, G,4- | G,4 =G,4 | z4 z2 A,2 | %28
 E3 D E2 C2 | B,4 x4 | A,2 C2 B,4 | E,8 | z8 | z2 C2 z2 A,2 | A,2 A,2 F2 D2 | E8 | A,4 z2 [A,^C]2 | %37
 [A,^C]2 D2 z2 [=CE]2- | [CE]2 F,2 z2 E,2 | E,2 A,2 z2 =G,2- | G,2 C,2 z2 A,,2 | CB, A,3 B,/C/ DC | %42
 B,2 C2 B,4 | z4 z2 A,2 | x8 | x8 | x8 | x8 | x8 | x8 | C2 CB, A,4 | A,4 x2[I:staff -1] A G | %52
 F2[I:staff +1] x6 | x8 | x8 | x8 | z4 z2 A,2 | x8 | x8 | ^G,4 A,4 | z2 F,2 F,2 E,2 | D,2 C,2 G,4 | %62
[I:staff -1] E4[I:staff +1] x2[I:staff -1] ED |[I:staff +1] C2 CB, A,4 | A,4 x2 D2 | D,8 | E,8 | %67
 F,2 E,D, C,2 D,2 | E,8 | A,,8 |] %70
V:7
 x8 | x8 | x8 | x8 | x8 | x8 |[M:4/4] x8 | x8 | x8 | x8 | x8 | x8 | x8 | x8 | x8 | x8 | x4 E2 F2 | %17
 G6 x2 | x8 | x8 | x8 | c3 B/A/ ^G4 | x8 | x4 E2 A2 | ABcd e2- [Ee]2 | e8- | [Be]4 x4 | x8 | x8 | %29
 ^G4 A4 | x8 | x8 | x8 | x8 | edcB AB/c/ x2 | x4 B4 | x8 | x8 | x8 | x8 | x8 | A3 B/c/ dcBA | %42
 ^G2 A4 G2 | [^CA]4 z2 e2 | [Ee]3 [Ee] [^Fd]2 [Ace]2 | [^GB]4 A4 | x8 | x8 | x8 | E4 z2 ED | %50
 z2 ed c2 [ce][Bd] | A6[I:staff +1] D2 |[I:staff -1] x2 [Fd][Ec] [DB]2 D2 | x8 | x6 [DB][CA] | %55
 [B,^G]2 [CA]2 [B,G]4 | [^CA]4 z2 e2 | [Ee]3 [Ee] [^Fd]2 [Ace]2 | [^GBe]4 [Ad]2- [Ac]2 | B4 A4 | %60
 z2 [FAc]2 [FAc]2 [CGc]2 | [DFA]2 [EGc]2 [DGB]4 | [Gc]8 | z2 ed c2 [ce][Bd] | A6 AG | %65
 F2 [Fd][Ec] x2 D2 | x8 | x4 x2 F2 | E8 | x8 |] %70
V:8
 x8 | x8 | x8 | x8 | x8 | x8 |[M:4/4] x8 | x8 | x8 | x8 | x8 | x8 | x8 | x8 | x8 | x8 | x8 | x8 | %18
 x8 | x8 | x8 | x8 | x8 | x8 | z2 A,,2 A,,B,,C,D, | E,8 | E,8 | x8 | x8 | z2 E,2 A,3 ^G, | x8 | %31
 x8 | x8 | x8 | x8 | x8 | x8 | x8 | x8 | x8 | x8 | A,,2 A,,2 F,2 D,2 | E,8 | A,,8 | z4 z2 A,,2 | %45
 E,3 E, ^F,2 A,2 | ^G,4 A,4 | z2 F,2 F,2 E,2 | D,2 C,2 G,4 | C,8- | C,4 x4 | x2 A,G, F,2 F,E, | %52
 D,8 | E,8 | F,2 E,D, C,2 D,2 | E,8 | A,,8 | z4 z2 A,,2 | E,3 E, ^F,2 A,2 | x8 | x8 | x8 | C,8- | %63
 C,4 x4 | z2 A,G, F,2 [F,C][E,B,] | x8 | x8 | x8 | x8 | x8 |] %70

